assets/img/icons/duotone-icons/Shopping/Box#3.svg

<?xml version="1.0" encoding="UTF-8"?>
<svg width="24px" height="24px" viewBox="0 0 24 24" version="1.1" xmlns="http://www.w3.org/2000/svg" xmlns:xlink="http://www.w3.org/1999/xlink">
    <!-- Generator: Sketch 52.2 (67145) - http://www.bohemiancoding.com/sketch -->
    <title>Stockholm-icons / Shopping / Box#3</title>
    <desc>Created with Sketch.</desc>
    <g id="Stockholm-icons-/-Shopping-/-Box#3" stroke="none" stroke-width="1" fill="none" fill-rule="evenodd">
        <rect id="bound" x="0" y="0" width="24" height="24"></rect>
        <path d="M20.4061385,6.73606154 C20.7672665,6.89656288 21,7.25468437 21,7.64987309 L21,16.4115967 C21,16.7747638 20.8031081,17.1093844 20.4856429,17.2857539 L12.4856429,21.7301984 C12.1836204,21.8979887 11.8163796,21.8979887 11.5143571,21.7301984 L3.51435707,17.2857539 C3.19689188,17.1093844 3,16.7747638 3,16.4115967 L3,7.64987309 C3,7.25468437 3.23273352,6.89656288 3.59386153,6.73606154 L11.5938615,3.18050598 C11.8524269,3.06558805 12.1475731,3.06558805 12.4061385,3.18050598 L20.4061385,6.73606154 Z" id="Combined-Shape" fill="#335EEA" opacity="0.3"></path>
        <polygon id="Combined-Shape-Copy" fill="#335EEA" points="14.9671522 4.22441676 7.5999999 8.31727912 7.5999999 12.9056825 9.5999999 13.9056825 9.5999999 9.49408582 17.25507 5.24126912"></polygon>
    </g>
</svg>

<svg width="24" height="24" viewBox="0 0 24 24" xmlns="http://www.w3.org/2000/svg"><g fill="none" fill-rule="evenodd"><path d="M0 0h24v24H0z"/><path d="M20.406 6.736A1 1 0 0121 7.65v8.762a1 1 0 01-.514.874l-8 4.444a1 1 0 01-.972 0l-8-4.444A1 1 0 013 16.412V7.65a1 1 0 01.594-.914l8-3.555a1 1 0 01.812 0l8 3.555z" fill="#335EEA" opacity=".3"/><path fill="#335EEA" d="M14.967 4.224L7.6 8.317v4.589l2 1V9.494l7.655-4.253z"/></g></svg>
